X:7942
T:Hanen stend p\aa stabburshella
C:anon.
O:Norway
R:Canon
F:http://abc.musicaviva.com/tunes/norway/hanen-stend-c/hanen-stend-c-voca4.abc
M:2/4
L:1/16
K:C
"C"SC2C2 (DC)D2|"C"C2G,2 C2C2|
w:Ha-nen stend_ p\aa stab-burs-hel-la,
"C"SE2E2 (FE)FD|"C"G4z4|"C"Sc2G2 G2FG|
w:bon-den gjev_ ho-nom konn. Rak-kin skvak-kar i
"C"E2G2 G3G|"C"SG,2G,G, (B,C)(DB,)|"C"C6z2|]
w:bak-kom nord, og hju-rin-gen bl\aes_ i_ honn.
W:
W:Hanen stend p\aa stabburshella,
W:bonden gjev honom konn.
W:Rakkin skvakkar i bakkom nord,
W:og hjuringen bl\aes i honn.
W:
W:
W:  From Musica Viva - http://www.musicaviva.com
W:  the Internet center for free sheet music downloads.

